; generated by Slic3r 1.2.9 on 2019-03-24 at 01:13:47

; external perimeters extrusion width = 0.38mm
; perimeters extrusion width = 0.52mm
; infill extrusion width = 0.52mm
; solid infill extrusion width = 0.52mm
; top infill extrusion width = 0.52mm

M107
M190 S65 ; set bed temperature
M104 S205 ; set temperature
G28 ;Home
G1 Z15.0 F6000 ;Move the platform down 15mm
;Prime the extruder
G92 E0
G1 F200 E3
G92 E0
M109 S205 ; wait for temperature to be reached
G21 ; set units to millimeters
G90 ; use absolute coordinates
M82 ; use absolute distances for extrusion
G92 E0
G1 E-8.00000 F1800.00000
G92 E0
G1 Z0.240 F2400.000
G1 X104.209 Y122.040 F2400.000
G1 E8.00000 F1800.00000
G1 X104.583 Y121.721 E8.02100 F1800.000
G1 X106.743 Y120.905 E8.11972
G1 X108.000 Y120.786 E8.17370
G1 X172.000 Y120.786 E10.91005
G1 X174.275 Y121.183 E11.00877
G1 X176.280 Y122.327 E11.10749 F1800.000
G1 X177.779 Y124.083 E11.20621
G1 X178.595 Y126.243 E11.30493
G1 X178.714 Y127.500 E11.35891
G1 X178.714 Y152.500 E12.42780
G1 X178.317 Y154.775 E12.52652
G1 X177.173 Y156.780 E12.62524
G1 X175.417 Y158.279 E12.72396
G1 X173.257 Y159.095 E12.82268
G1 X172.000 Y159.214 E12.87666
G1 X108.000 Y159.214 E15.61301
G1 X105.725 Y158.817 E15.71173
G1 X103.720 Y157.673 E15.81045
G1 X102.221 Y155.917 E15.90917
G1 X101.405 Y153.757 E16.00789
G1 X101.286 Y152.500 E16.06187
G1 X101.286 Y127.500 E17.13076
G1 X101.683 Y125.225 E17.22947
G1 X102.827 Y123.220 E17.32819
G1 X104.166 Y122.077 E17.40347
G1 X104.488 Y122.386 F2400.000
G1 X104.992 Y121.981 E17.43109 F1800.000
G1 X108.000 Y121.215 E17.56383
G1 X172.000 Y121.215 E20.30017
G1 X174.198 Y121.611 E20.39567
G1 X176.118 Y122.752 E20.49116 F1800.000
G1 X177.519 Y124.492 E20.58665
G1 X178.285 Y127.500 E20.71939
G1 X178.285 Y152.500 E21.78828
G1 X177.889 Y154.698 E21.88377
G1 X176.748 Y156.618 E21.97926
G1 X175.008 Y158.019 E22.07476
G1 X172.000 Y158.785 E22.20750
G1 X108.000 Y158.785 E24.94385
G1 X105.802 Y158.389 E25.03934
G1 X103.882 Y157.248 E25.13483
G1 X102.481 Y155.508 E25.23032
G1 X101.715 Y152.500 E25.36306
G1 X101.715 Y127.500 E26.43195
G1 X102.111 Y125.302 E26.52744
G1 X103.252 Y123.382 E26.62293
G1 X104.444 Y122.422 E26.68838
G1 X104.753 Y122.738 F2400.000
G1 X105.397 Y122.253 E26.72284 F1800.000
G1 X108.000 Y121.643 E26.83714
G1 X172.000 Y121.643 E29.57349
G1 X174.119 Y122.040 E29.66564
G1 X175.950 Y123.176 E29.75779 F1800.000
G1 X177.247 Y124.897 E29.84995
G1 X177.857 Y127.500 E29.96424
G1 X177.857 Y152.500 E31.03313
G1 X177.460 Y154.619 E31.12528
G1 X176.324 Y156.450 E31.21744
G1 X174.603 Y157.747 E31.30959
G1 X172.000 Y158.357 E31.42388
G1 X108.000 Y158.357 E34.16023
G1 X105.881 Y157.960 E34.25239
G1 X104.050 Y156.824 E34.34454
G1 X102.753 Y155.103 E34.43669
G1 X102.143 Y152.500 E34.55099
G1 X102.143 Y127.500 E35.61988
G1 X102.540 Y125.381 E35.71203
G1 X103.676 Y123.550 E35.80418
G1 X104.708 Y122.772 E35.85944
G1 X105.002 Y123.094 F2400.000
G1 X105.800 Y122.537 E35.90102 F1800.000
G1 X108.000 Y122.072 E35.99718
G1 X172.000 Y122.072 E38.73353
G1 X174.036 Y122.468 E38.82222
G1 X175.775 Y123.599 E38.91091 F1800.000
G1 X176.963 Y125.300 E38.99960
G1 X177.428 Y127.500 E39.09576
G1 X177.428 Y152.500 E40.16465
G1 X177.032 Y154.536 E40.25334
G1 X175.901 Y156.275 E40.34203
G1 X174.200 Y157.463 E40.43071
G1 X172.000 Y157.928 E40.52688
G1 X108.000 Y157.928 E43.26323
G1 X105.964 Y157.532 E43.35192
G1 X104.225 Y156.401 E43.44061
G1 X103.037 Y154.700 E43.52930
G1 X102.572 Y152.500 E43.62546
G1 X102.572 Y127.500 E44.69435
G1 X102.968 Y125.464 E44.78304
G1 X104.099 Y123.725 E44.87172
G1 X104.955 Y123.127 E44.91639
G1 E36.91639 F1800.00000
G92 E0
G1 X171.332 Y151.832 F2400.000
G1 E8.00000 F1800.00000
G1 X108.668 Y151.832 E10.67919 F1800.000
G1 X108.668 Y128.169 E11.69088
G1 X109.371 Y128.170 E11.72092
G1 X109.494 Y128.837 E11.74990
G1 X109.697 Y129.494 E11.77931
G1 X109.977 Y130.140 E11.80944
G1 X110.331 Y130.772 E11.84041
G1 X110.758 Y131.389 E11.87246
G1 X111.254 Y131.990 E11.90578
G1 X111.820 Y132.577 E11.94064
G1 X112.449 Y133.145 E11.97687
G1 X113.142 Y133.696 E12.01472
G1 X113.896 Y134.229 E12.05423
G1 X114.711 Y134.744 E12.09545
G1 X115.584 Y135.240 E12.13839
G1 X116.518 Y135.719 E12.18324
G1 X117.502 Y136.176 E12.22963
G1 X118.538 Y136.611 E12.27769
G1 X119.624 Y137.025 E12.32738
G1 X120.758 Y137.417 E12.37865
G1 X121.941 Y137.786 E12.43164
G1 X123.161 Y138.130 E12.48586
G1 X124.421 Y138.449 E12.54143
G1 X125.717 Y138.743 E12.59826
G1 X127.047 Y139.011 E12.65626
G1 X128.413 Y139.254 E12.71556
G1 X129.800 Y139.468 E12.77558
G1 X131.212 Y139.654 E12.83645
G1 X132.643 Y139.813 E12.89804
G1 X134.096 Y139.944 E12.96040
G1 X137.035 Y140.118 E13.08629
G1 X140.000 Y140.176 E13.21307
G1 X142.965 Y140.118 E13.33985
G1 X145.904 Y139.944 E13.46574
G1 X147.356 Y139.813 E13.52810
G1 X148.788 Y139.654 E13.58969
G1 X150.200 Y139.468 E13.65056
G1 X151.587 Y139.254 E13.71058
G1 X152.953 Y139.011 E13.76988
G1 X154.277 Y138.744 E13.82764
G1 X155.584 Y138.448 E13.88493
G1 X156.839 Y138.130 E13.94028
G1 X158.059 Y137.786 E13.99450
G1 X159.242 Y137.417 E14.04749
G1 X160.376 Y137.025 E14.09876
G1 X161.462 Y136.611 E14.14845
G1 X162.498 Y136.176 E14.19651
G1 X163.482 Y135.719 E14.24290
G1 X164.416 Y135.240 E14.28775
G1 X165.289 Y134.744 E14.33070
G1 X166.107 Y134.227 E14.37207
G1 X166.858 Y133.696 E14.41142
G1 X167.551 Y133.145 E14.44927
G1 X168.180 Y132.577 E14.48550
G1 X168.746 Y131.990 E14.52036
G1 X169.242 Y131.389 E14.55367
G1 X169.669 Y130.772 E14.58573
G1 X170.023 Y130.140 E14.61670
G1 X170.303 Y129.494 E14.64683
G1 X170.506 Y128.837 E14.67624
G1 X170.629 Y128.168 E14.70529
G1 X171.332 Y128.168 E14.73532
G1 X171.332 Y151.775 E15.74461
G1 X171.760 Y152.260 F2400.000
G1 X108.240 Y152.260 E18.46044 F1800.000
G1 X108.240 Y127.740 E19.50879
G1 X109.774 Y127.742 E19.57439
G1 X109.797 Y128.119 E19.59052
G1 X109.911 Y128.734 E19.61729
G1 X110.099 Y129.345 E19.64462
G1 X110.361 Y129.950 E19.67280
G1 X110.695 Y130.545 E19.70198
G1 X111.100 Y131.130 E19.73239
G1 X111.574 Y131.704 E19.76423
G1 X112.118 Y132.269 E19.79774
G1 X112.726 Y132.818 E19.83277
G1 X113.399 Y133.353 E19.86952
G1 X114.135 Y133.873 E19.90804
G1 X114.932 Y134.376 E19.94835
G1 X115.788 Y134.863 E19.99048
G1 X116.706 Y135.334 E20.03457
G1 X117.675 Y135.784 E20.08026
G1 X118.698 Y136.214 E20.12768
G1 X119.770 Y136.622 E20.17677
G1 X120.892 Y137.009 E20.22748
G1 X122.063 Y137.375 E20.27994
G1 X123.272 Y137.716 E20.33366
G1 X124.521 Y138.033 E20.38876
G1 X125.807 Y138.324 E20.44514
G1 X127.127 Y138.590 E20.50270
G1 X128.483 Y138.831 E20.56158
G1 X129.861 Y139.044 E20.62120
G1 X131.263 Y139.229 E20.68167
G1 X132.686 Y139.387 E20.74289
G1 X134.128 Y139.516 E20.80477
G1 X137.052 Y139.690 E20.93002
G1 X140.000 Y139.748 E21.05608
G1 X142.948 Y139.690 E21.18214
G1 X145.872 Y139.516 E21.30739
G1 X147.314 Y139.387 E21.36927
G1 X148.737 Y139.229 E21.43049
G1 X150.139 Y139.044 E21.49096
G1 X151.517 Y138.831 E21.55058
G1 X152.873 Y138.590 E21.60946
G1 X154.187 Y138.325 E21.66679
G1 X155.484 Y138.031 E21.72363
G1 X156.728 Y137.716 E21.77850
G1 X157.937 Y137.375 E21.83222
G1 X159.108 Y137.009 E21.88468
G1 X160.230 Y136.622 E21.93539
G1 X161.302 Y136.214 E21.98448
G1 X162.325 Y135.784 E22.03190
G1 X163.294 Y135.334 E22.07759
G1 X164.212 Y134.863 E22.12168
G1 X165.068 Y134.376 E22.16381
G1 X165.868 Y133.870 E22.20428
G1 X166.601 Y133.353 E22.24264
G1 X167.274 Y132.818 E22.27939
G1 X167.882 Y132.269 E22.31442
G1 X168.426 Y131.704 E22.34793
G1 X168.900 Y131.130 E22.37977
G1 X169.305 Y130.545 E22.41018
G1 X169.639 Y129.950 E22.43936
G1 X169.901 Y129.345 E22.46754
G1 X170.089 Y128.734 E22.49487
G1 X170.203 Y128.118 E22.52165
G1 X170.226 Y127.740 E22.53786
G1 X171.760 Y127.740 E22.60346
G1 X171.760 Y152.203 E23.64938
G1 X171.431 Y152.070 F2400.000
G1 X171.078 Y129.969 F2400.000
G1 X170.853 Y129.743 E23.66311 F1800.000
G1 X170.380 Y129.881 E23.68428
G1 X171.078 Y130.579 E23.72674
G1 X171.078 Y131.189 E23.75298
G1 X170.187 Y130.298 E23.80718
G1 X169.968 Y130.689 E23.82645
G1 X171.078 Y131.799 E23.89399
G1 X171.078 Y132.408 E23.92023
G1 X169.732 Y131.063 E24.00211
G1 X169.483 Y131.423 E24.02097
G1 X171.078 Y133.018 E24.11802
G1 X171.078 Y133.628 E24.14426
G1 X169.214 Y131.763 E24.25772
G1 X168.938 Y132.097 E24.27636
G1 X171.078 Y134.238 E24.40659
G1 X171.078 Y134.848 E24.43283
G1 X168.641 Y132.410 E24.58114
G1 X168.341 Y132.721 E24.59970
G1 X171.078 Y135.457 E24.76623
G1 X171.078 Y136.067 E24.79246
G1 X168.022 Y133.011 E24.97843
G1 X167.701 Y133.300 E24.99701
G1 X171.078 Y136.677 E25.20248
G1 X171.078 Y137.287 E25.22872
G1 X167.363 Y133.571 E25.45480
G1 X167.023 Y133.841 E25.47347
G1 X171.078 Y137.897 E25.72021
G1 X171.078 Y138.506 E25.74645
G1 X166.668 Y134.096 E26.01479
G1 X166.311 Y134.349 E26.03361
G1 X171.078 Y139.116 E26.32369
G1 X171.078 Y139.726 E26.34992
G1 X165.942 Y134.590 E26.66245
G1 X165.568 Y134.826 E26.68146
G1 X171.078 Y140.336 E27.01671
G1 X171.078 Y140.946 E27.04295
G1 X165.188 Y135.055 E27.40138
G1 X164.799 Y135.276 E27.42062
G1 X171.078 Y141.555 E27.80271
G1 X171.078 Y142.165 E27.82895
G1 X164.407 Y135.494 E28.23487
G1 X164.004 Y135.701 E28.25436
G1 X171.078 Y142.775 E28.68481
G1 X171.078 Y143.385 E28.71105
G1 X163.601 Y135.908 E29.16602
G1 X163.186 Y136.103 E29.18573
G1 X171.078 Y143.995 E29.66593
G1 X171.078 Y144.604 E29.69217
G1 X162.770 Y136.296 E30.19772
G1 X162.347 Y136.483 E30.21760
G1 X171.078 Y145.214 E30.74885
G1 X171.078 Y145.824 E30.77509
G1 X161.918 Y136.664 E31.33246
G1 X161.488 Y136.844 E31.35251
G1 X171.078 Y146.434 E31.93602
G1 X171.078 Y147.044 E31.96226
G1 X161.047 Y137.012 E32.57264
G1 X160.605 Y137.181 E32.59297
G1 X171.078 Y147.654 E33.23022
G1 X171.078 Y148.263 E33.25646
G1 X160.157 Y137.342 E33.92096
G1 X159.704 Y137.499 E33.94159
G1 X171.078 Y148.873 E34.63368
G1 X171.078 Y149.483 E34.65992
G1 X159.251 Y137.655 E35.37959
G1 X158.786 Y137.800 E35.40054
G1 X171.078 Y150.093 E36.14849
G1 X171.078 Y150.703 E36.17472
G1 X158.321 Y137.946 E36.95095
G1 X157.852 Y138.086 E36.97204
G1 X171.078 Y151.312 E37.77684
G1 X170.734 Y151.578 E37.79554
G1 X157.376 Y138.220 E38.60836
G1 X156.900 Y138.354 E38.62963
G1 X170.124 Y151.578 E39.43428
G1 X169.515 Y151.578 E39.46052
G1 X156.415 Y138.479 E40.25759
G1 X155.929 Y138.602 E40.27918
G1 X168.905 Y151.578 E41.06875
G1 X168.295 Y151.578 E41.09498
G1 X155.439 Y138.722 E41.87722
G1 X154.942 Y138.835 E41.89915
G1 X167.685 Y151.578 E42.67453
G1 X167.075 Y151.578 E42.70077
G1 X154.445 Y138.948 E43.46928
G1 X153.941 Y139.054 E43.49143
G1 X166.466 Y151.578 E44.25349
G1 X165.856 Y151.578 E44.27972
G1 X153.434 Y139.156 E45.03556
G1 X152.926 Y139.259 E45.05784
G1 X165.246 Y151.578 E45.80745
G1 X164.636 Y151.578 E45.83369
G1 X152.408 Y139.350 E46.57771
G1 X151.890 Y139.442 E46.60034
G1 X164.026 Y151.578 E47.33877
G1 X163.417 Y151.578 E47.36501
G1 X151.369 Y139.531 E48.09807
G1 X150.841 Y139.612 E48.12107
G1 X162.807 Y151.578 E48.84917
G1 X162.197 Y151.578 E48.87540
G1 X150.312 Y139.694 E49.59854
G1 X149.777 Y139.768 E49.62180
G1 X161.587 Y151.578 E50.34042
G1 X160.977 Y151.578 E50.36666
G1 X149.238 Y139.839 E51.08095
G1 X148.699 Y139.910 E51.10435
G1 X160.367 Y151.578 E51.81435
G1 X159.758 Y151.578 E51.84059
G1 X148.150 Y139.970 E52.54689
G1 X147.601 Y140.031 E52.57065
G1 X159.148 Y151.578 E53.27325
G1 X158.538 Y151.578 E53.29949
G1 X147.047 Y140.087 E53.99868
G1 X146.488 Y140.138 E54.02285
G1 X157.928 Y151.578 E54.71897
G1 X157.318 Y151.578 E54.74521
G1 X145.928 Y140.188 E55.43828
G1 X145.355 Y140.225 E55.46299
G1 X156.709 Y151.578 E56.15382
G1 X156.099 Y151.578 E56.18006
G1 X144.779 Y140.259 E56.86881
G1 X144.204 Y140.293 E56.89362
G1 X155.489 Y151.578 E57.58029
G1 X154.879 Y151.578 E57.60653
G1 X143.628 Y140.327 E58.29112
G1 X143.052 Y140.361 E58.31593
G1 X154.269 Y151.578 E58.99845
G1 X153.660 Y151.578 E59.02469
G1 X142.461 Y140.380 E59.70609
G1 X141.863 Y140.391 E59.73183
G1 X153.050 Y151.578 E60.41252
G1 X152.440 Y151.578 E60.43876
G1 X141.265 Y140.403 E61.11874
G1 X140.667 Y140.415 E61.14448
G1 X151.830 Y151.578 E61.82374
G1 X151.220 Y151.578 E61.84998
G1 X140.069 Y140.427 E62.52852
G1 X139.453 Y140.421 E62.55501
G1 X150.611 Y151.578 E63.23391
G1 X150.001 Y151.578 E63.26015
G1 X138.831 Y140.408 E63.93980
G1 X138.209 Y140.396 E63.96657
G1 X149.391 Y151.578 E64.64696
G1 X148.781 Y151.578 E64.67319
G1 X137.587 Y140.384 E65.35433
G1 X136.965 Y140.372 E65.38110
G1 X148.171 Y151.578 E66.06297
G1 X147.561 Y151.578 E66.08921
G1 X136.318 Y140.335 E66.77334
G1 X135.670 Y140.296 E66.80128
G1 X146.952 Y151.578 E67.48776
G1 X146.342 Y151.578 E67.51400
G1 X135.021 Y140.258 E68.20281
G1 X134.373 Y140.219 E68.23075
G1 X145.732 Y151.578 E68.92191
G1 X145.122 Y151.578 E68.94815
G1 X133.716 Y140.172 E69.64217
G1 X133.046 Y140.112 E69.67111
G1 X144.512 Y151.578 E70.36880
G1 X143.903 Y151.578 E70.39503
G1 X132.373 Y140.048 E71.09658
G1 X131.687 Y139.972 E71.12627
G1 X143.293 Y151.578 E71.83244
G1 X142.683 Y151.578 E71.85868
G1 X130.999 Y139.895 E72.56959
G1 X130.297 Y139.802 E72.60009
G1 X142.073 Y151.578 E73.31666
G1 X141.463 Y151.578 E73.34289
G1 X129.592 Y139.707 E74.06522
G1 X128.871 Y139.596 E74.09661
G1 X140.854 Y151.578 E74.82571
G1 X140.244 Y151.578 E74.85195
G1 X128.147 Y139.481 E75.58802
G1 X127.405 Y139.350 E75.62041
G1 X139.634 Y151.578 E76.36448
G1 X139.024 Y151.578 E76.39072
G1 X126.657 Y139.211 E77.14321
G1 X125.894 Y139.057 E77.17673
G1 X138.414 Y151.578 E77.93858
G1 X137.805 Y151.578 E77.96482
G1 X125.116 Y138.890 E78.73688
G1 X124.327 Y138.711 E78.77167
G1 X137.195 Y151.578 E79.55461
G1 X136.585 Y151.578 E79.58085
G1 X123.513 Y138.507 E80.37622
G1 X122.685 Y138.288 E80.41307
G1 X135.975 Y151.578 E81.22172
G1 X135.365 Y151.578 E81.24796
G1 X121.836 Y138.049 E82.07117
G1 X120.953 Y137.776 E82.11095
G1 X134.755 Y151.578 E82.95079
G1 X134.146 Y151.578 E82.97703
G1 X120.041 Y137.474 E83.83523
G1 X119.092 Y137.135 F2400.000
G1 X133.536 Y151.578 E84.71409 F1800.000
G1 X132.926 Y151.578 E84.74033
G1 X118.092 Y136.745 E85.64290
G1 X117.022 Y136.284 F2400.000
G1 X132.316 Y151.578 E86.57354 F1800.000
G1 X131.706 Y151.578 E86.59977
G1 X115.845 Y135.716 E87.56492
G1 X114.498 Y134.980 F2400.000
G1 X131.097 Y151.578 E88.57490 F1800.000
G1 X130.487 Y151.578 E88.60114
G1 X112.575 Y133.666 E89.69103
G1 X110.524 Y131.616 F2400.000
G1 X108.922 Y130.013 E89.78854 F1800.000
G1 X109.223 Y129.705 E89.80709
G1 X109.649 Y130.131 E89.83301
G1 X108.922 Y130.623 F2400.000
G1 X129.877 Y151.578 E91.10807 F1800.000
G1 X129.267 Y151.578 E91.13431
G1 X108.922 Y131.233 E92.37227
G1 X108.922 Y131.843 E92.39850
G1 X128.657 Y151.578 E93.59936
G1 X128.048 Y151.578 E93.62559
G1 X108.922 Y132.452 E94.78934
G1 X108.922 Y133.062 E94.81558
G1 X127.438 Y151.578 E95.94222
G1 X126.828 Y151.578 E95.96846
G1 X108.922 Y133.672 E97.05799
G1 X108.922 Y134.282 E97.08423
G1 X126.218 Y151.578 E98.13666
G1 X125.608 Y151.578 E98.16290
G1 X108.922 Y134.892 E99.17822
G1 X108.922 Y135.501 E99.20446
G1 X124.999 Y151.578 E100.18268
G1 X124.389 Y151.578 E100.20892
G1 X108.922 Y136.111 E101.15003
G1 X108.922 Y136.721 E101.17627
G1 X123.779 Y151.578 E102.08028
G1 X123.169 Y151.578 E102.10652
G1 X108.922 Y137.331 E102.97343
G1 X108.922 Y137.941 E102.99966
G1 X122.559 Y151.578 E103.82946
G1 X121.949 Y151.578 E103.85570
G1 X108.922 Y138.551 E104.64840
G1 X108.922 Y139.160 E104.67463
G1 X121.340 Y151.578 E105.43022
G1 X120.730 Y151.578 E105.45646
G1 X108.922 Y139.770 E106.17495
G1 X108.922 Y140.380 E106.20118
G1 X120.120 Y151.578 E106.88257
G1 X119.510 Y151.578 E106.90880
G1 X108.922 Y140.990 E107.55308
G1 X108.922 Y141.600 E107.57931
G1 X118.900 Y151.578 E108.18649
